assets/img/jaxon-placeholder-logo-02.1.2.svg

<svg fill="none" height="48" viewBox="0 0 155 48" width="155" xmlns="http://www.w3.org/2000/svg"><g fill="#f4f4f4"><path d="m27.3496 14.0963h2.3301v16.2177h6.9905v2.3302h-9.3206zm16.5789 0c1.3826 0 2.7341.41 3.8837 1.1781 1.1495.7681 2.0456 1.8598 2.5746 3.1372.5291 1.2774.6675 2.6829.3978 4.0388-.2697 1.356-.9354 2.6016-1.9132 3.5792-.9776.9777-2.2231 1.6434-3.5792 1.9132-1.3559.2697-2.7614.1313-4.0388-.3978-1.2774-.5292-2.369-1.4251-3.1372-2.5747-.7681-1.1495-1.1781-2.501-1.1781-3.8836 0-.918.1808-1.8271.5321-2.6751.3513-.8482.8662-1.6188 1.5154-2.2678.6491-.6492 1.4196-1.1642 2.2678-1.5154.8481-.3513 1.7572-.5321 2.6751-.5321zm0 11.6507c.9217 0 1.8228-.2734 2.5892-.7854.7663-.5122 1.3637-1.24 1.7163-2.0915.3528-.8516.4451-1.7885.2652-2.6926-.1798-.904-.6237-1.7344-1.2754-2.3861s-1.4821-1.0956-2.3861-1.2754c-.9041-.1799-1.841-.0876-2.6925.2652-.8516.3526-1.5795.95-2.0916 1.7164-.512.7663-.7853 1.6674-.7853 2.5891.0061 1.2319.4998 2.4113 1.3731 3.2802s2.0552 1.3568 3.2871 1.3568zm-4.6602 4.5903h9.3205v2.3302h-9.3205zm29.8257 2.3302h-2.3301v-1.6661c-1.5028 1.0518-3.2921 1.6171-5.1263 1.6195-1.5642.0104-3.1058-.3729-4.4828-1.1147-1.3771-.7419-2.5453-1.8183-3.3969-3.1301-.8518-1.3119-1.3598-2.8171-1.477-4.3769-.1173-1.5596.1598-3.1239.8059-4.5483.646-1.4245 1.6402-2.6635 2.8907-3.6028 1.2507-.9394 2.7177-1.549 4.2657-1.7724 1.5481-.2236 3.1276-.0539 4.5928.4934 1.4653.5472 2.7694 1.4543 3.792 2.6379l-1.7127 1.5263c-.7778-.8697-1.7608-1.5307-2.8595-1.923-1.0987-.3924-2.2781-.5035-3.4307-.3233-1.1527.1802-2.2418.6461-3.1684 1.3551-.9265.7091-1.6608 1.6385-2.1359 2.7041-.4752 1.0655-.6762 2.2329-.5846 3.396.0915 1.163.4726 2.2846 1.1088 3.2626.6361.978 1.5067 1.7813 2.5328 2.3365 1.026.5553 2.1747.845 3.3413.8426.9682.002 1.9254-.2051 2.8062-.6073.8807-.4022 1.6642-.9899 2.2968-1.7228h-6.2914v-2.3301h8.5866zm8.5749-18.5246c1.3826 0 2.7341.41 3.8836 1.1781 1.1496.7681 2.0456 1.8598 2.5747 3.1372s.6675 2.6829.3978 4.0388c-.2698 1.356-.9355 2.6016-1.9132 3.5792-.9776.9777-2.2232 1.6434-3.5792 1.9132-1.3559.2697-2.7614.1313-4.0388-.3978-1.2774-.5292-2.3691-1.4251-3.1372-2.5747-.7681-1.1495-1.1781-2.501-1.1781-3.8836-.0062-.9239.1709-1.8398.5209-2.6948.35-.8551.866-1.6323 1.5182-2.2866.6522-.6544 1.4277-1.173 2.2815-1.5259.8539-.3527 1.7692-.5329 2.6931-.5297zm0 11.6507c.9217 0 1.8227-.2734 2.5891-.7854.7664-.5122 1.3637-1.24 1.7164-2.0915.3528-.8516.445-1.7885.2652-2.6926-.1798-.904-.6237-1.7343-1.2754-2.3861-.6518-.6517-1.4821-1.0956-2.3861-1.2754-.9041-.1799-1.841-.0876-2.6926.2652-.8515.3526-1.5795.95-2.0915 1.7164-.5121.7663-.7854 1.6674-.7854 2.5891.0184 1.2279.5207 2.3989 1.3977 3.2585.877.8594 2.0579 1.3381 3.2859 1.3319zm-4.6603 4.5903h9.3206v2.3302h-9.3206zm14.1323-16.2876h2.3301v18.5246h-2.3301zm5.5574 0h2.3301c.12-.0127.241-.0127.3612 0 .9758-.1059 1.9631-.005 2.8974.2959.9342.3011 1.795.7954 2.525 1.451.731.6556 1.315 1.4577 1.715 2.3541s.607 1.867.607 2.8486-.207 1.9522-.607 2.8486-.984 1.6986-1.715 2.3541c-.73.6556-1.5908 1.15-2.525 1.451-.9343.3009-1.9216.4018-2.8974.2959h-.3612v4.6603h-2.3301zm2.3301 2.3301v9.2157h.3612c.6581.0876 1.3273.0337 1.963-.1584.6355-.1921 1.2227-.5177 1.7222-.9551.4996-.4373.8998-.9764 1.1742-1.5811.274-.6046.416-1.2609.416-1.9249s-.142-1.3202-.416-1.9249c-.2744-.6047-.6746-1.1438-1.1742-1.5811-.4995-.4375-1.0867-.763-1.7222-.9552-.6357-.192-1.3049-.2459-1.963-.1583-.1269.0132-.252.0406-.3729.0816zm16.7886-.9903-1.724 1.3631c-.298-.3108-.678-.5303-1.096-.6326s-.856-.0832-1.263.0551c-.408.1382-.767.3898-1.037.7254-.269.3355-.437.741-.484 1.1687v.1864c0 1.0252.711 1.7126 2.097 1.8058 5.336.3262 7.783 2.8311 7.783 6.1399v.2097c-.138 1.3096-.649 2.552-1.472 3.5796-.824 1.0276-1.925 1.7969-3.173 2.2167-1.248.4196-2.591.472-3.868.1508-1.277-.3211-2.435-1.0023-3.336-1.9625l1.783-1.3748c.415.4447.921.7938 1.485 1.0232.563.2292 1.169.3334 1.777.305 1.122.0592 2.224-.3175 3.075-1.0514.851-.7337 1.385-1.768 1.492-2.8866v-.1631c0-3.1107-3.053-3.6816-5.697-3.9379-2.447-.233-4.206-1.7592-4.206-3.9612v-.0932c.086-1.1464.609-2.216 1.461-2.9877.852-.7719 1.968-1.1871 3.118-1.16.609-.0179 1.215.092 1.779.3228.563.2308 1.073.5773 1.494 1.0171zm13.398 14.8197c2.901 0 5.197-3.1341 5.197-6.9904v-9.3206h2.33v9.3206c0 5.1263-3.356 9.2623-7.48 9.2623s-7.48-4.136-7.48-9.2623v-9.3206h2.33v9.3206c-.093 3.9146 2.202 7.0486 5.092 7.0486zm25.41 2.3301h-2.33v-11.5342l-5.371 6.9904-5.371-6.9904v11.5692h-2.33v-18.5246l7.69 10.1244 7.689-10.1244z"/><path d="m16.1642 11.3118c0-1.68089-.6677-3.29298-1.8563-4.48157-1.1886-1.18861-2.8007-1.85635-4.48165-1.85635-1.68094 0-3.29302.66774-4.48162 1.85635-1.1886 1.18859-1.85635 2.80068-1.85635 4.48157v19.1654l5.2195 3.7399v9.1108h2.23692v-9.1108l5.2195-3.7399zm-2.2369 10.7187-2.9826 2.9825v-2.7961l2.9826-2.9826zm-8.15549-2.7962 2.98258 2.9826v2.7961l-2.98258-2.9825zm8.15549-3.169-4.10105 4.1011-4.10104-4.1943v-2.7961l4.10104 4.101 4.10105-4.101zm-4.10105-8.85449c.90195.00398 1.77765.30353 2.49315.85274.7154.54922 1.2311 1.31781 1.4681 2.18805l-3.96125 3.9496-3.96123-3.9496c.22828-.87889.74025-1.65792 1.45649-2.21615.71623-.55824 1.59667-.8645 2.50474-.87126zm-4.10104 22.13629v-4.1943l2.98257 2.9826v3.3321zm5.21949 2.1321v-3.3438l2.9826-2.9826v4.1826z"/></g></svg>

<svg width="155" height="48" viewBox="0 0 155 48" fill="none" xmlns="http://www.w3.org/2000/svg">
<path d="M27.3496 14.0963H29.6797V30.314H36.6702V32.6442H27.3496V14.0963ZM43.9285 14.0963C45.3111 14.0963 46.6626 14.5063 47.8122 15.2744C48.9617 16.0425 49.8578 17.1342 50.3868 18.4116C50.9159 19.689 51.0543 21.0945 50.7846 22.4504C50.5149 23.8064 49.8492 25.052 48.8714 26.0296C47.8938 27.0073 46.6483 27.673 45.2922 27.9428C43.9363 28.2125 42.5308 28.0741 41.2534 27.545C39.976 27.0158 38.8844 26.1199 38.1162 24.9703C37.3481 23.8208 36.9381 22.4693 36.9381 21.0867C36.9381 20.1687 37.1189 19.2596 37.4702 18.4116C37.8215 17.5634 38.3364 16.7928 38.9856 16.1438C39.6347 15.4946 40.4052 14.9796 41.2534 14.6284C42.1015 14.2771 43.0106 14.0963 43.9285 14.0963ZM43.9285 25.747C44.8502 25.747 45.7513 25.4736 46.5177 24.9616C47.284 24.4494 47.8814 23.7216 48.234 22.8701C48.5868 22.0185 48.6791 21.0816 48.4992 20.1775C48.3194 19.2735 47.8755 18.4431 47.2238 17.7914C46.5721 17.1397 45.7417 16.6958 44.8377 16.516C43.9336 16.3361 42.9967 16.4284 42.1452 16.7812C41.2936 17.1338 40.5657 17.7312 40.0536 18.4976C39.5416 19.2639 39.2683 20.165 39.2683 21.0867C39.2744 22.3186 39.7681 23.498 40.6414 24.3669C41.5147 25.2358 42.6966 25.7237 43.9285 25.7237V25.747ZM39.2683 30.3373H48.5888V32.6675H39.2683V30.3373ZM69.094 32.6675H66.7639V31.0014C65.2611 32.0532 63.4718 32.6185 61.6376 32.6209C60.0734 32.6313 58.5318 32.248 57.1548 31.5062C55.7777 30.7643 54.6095 29.6879 53.7579 28.3761C52.9061 27.0642 52.3981 25.559 52.2809 23.9992C52.1636 22.4396 52.4407 20.8753 53.0868 19.4509C53.7328 18.0264 54.727 16.7874 55.9775 15.8481C57.2282 14.9087 58.6952 14.2991 60.2432 14.0757C61.7913 13.8521 63.3708 14.0218 64.836 14.5691C66.3013 15.1163 67.6054 16.0234 68.628 17.207L66.9153 18.7333C66.1375 17.8636 65.1545 17.2026 64.0558 16.8103C62.9571 16.4179 61.7777 16.3068 60.6251 16.487C59.4724 16.6672 58.3833 17.1331 57.4567 17.8421C56.5302 18.5512 55.7959 19.4806 55.3208 20.5462C54.8456 21.6117 54.6446 22.7791 54.7362 23.9422C54.8277 25.1052 55.2088 26.2268 55.845 27.2048C56.4811 28.1828 57.3517 28.9861 58.3778 29.5413C59.4038 30.0966 60.5525 30.3863 61.7191 30.3839C62.6873 30.3859 63.6445 30.1788 64.5253 29.7766C65.406 29.3744 66.1895 28.7867 66.8221 28.0538H60.5307V25.7237H69.1173L69.094 32.6675ZM77.6689 14.1429C79.0515 14.1429 80.403 14.5529 81.5525 15.321C82.7021 16.0891 83.5981 17.1808 84.1272 18.4582C84.6563 19.7356 84.7947 21.1411 84.525 22.497C84.2552 23.853 83.5895 25.0986 82.6118 26.0762C81.6342 27.0539 80.3886 27.7196 79.0326 27.9894C77.6767 28.2591 76.2712 28.1207 74.9938 27.5916C73.7164 27.0624 72.6247 26.1665 71.8566 25.0169C71.0885 23.8674 70.6785 22.5159 70.6785 21.1333C70.6723 20.2094 70.8494 19.2935 71.1994 18.4385C71.5494 17.5834 72.0654 16.8062 72.7176 16.1519C73.3698 15.4975 74.1453 14.9789 74.9991 14.626C75.853 14.2733 76.7683 14.0931 77.6922 14.0963L77.6689 14.1429ZM77.6689 25.7936C78.5906 25.7936 79.4916 25.5202 80.258 25.0082C81.0244 24.496 81.6217 23.7682 81.9744 22.9167C82.3272 22.0651 82.4194 21.1282 82.2396 20.2241C82.0598 19.3201 81.6159 18.4898 80.9642 17.838C80.3124 17.1863 79.4821 16.7424 78.5781 16.5626C77.674 16.3827 76.7371 16.475 75.8855 16.8278C75.034 17.1804 74.306 17.7778 73.794 18.5442C73.2819 19.3105 73.0086 20.2116 73.0086 21.1333C73.027 22.3612 73.5293 23.5322 74.4063 24.3918C75.2833 25.2512 76.4642 25.7299 77.6922 25.7237L77.6689 25.7936ZM73.0086 30.3839H82.3292V32.7141H73.0086V30.3839ZM87.1409 14.0963H89.471V32.6209H87.1409V14.0963ZM92.6983 14.0963H95.0284C95.1484 14.0836 95.2694 14.0836 95.3896 14.0963C96.3654 13.9904 97.3527 14.0913 98.287 14.3922C99.2212 14.6933 100.082 15.1876 100.812 15.8432C101.543 16.4988 102.127 17.3009 102.527 18.1973C102.927 19.0937 103.134 20.0643 103.134 21.0459C103.134 22.0275 102.927 22.9981 102.527 23.8945C102.127 24.7909 101.543 25.5931 100.812 26.2486C100.082 26.9042 99.2212 27.3986 98.287 27.6996C97.3527 28.0005 96.3654 28.1014 95.3896 27.9955H95.0284V32.6558H92.6983V14.0963ZM95.0284 16.4264V25.6421H95.3896C96.0477 25.7297 96.7169 25.6758 97.3526 25.4837C97.9881 25.2916 98.5753 24.966 99.0748 24.5286C99.5744 24.0913 99.9746 23.5522 100.249 22.9475C100.523 22.3429 100.665 21.6866 100.665 21.0226C100.665 20.3586 100.523 19.7024 100.249 19.0977C99.9746 18.493 99.5744 17.9539 99.0748 17.5166C98.5753 17.0791 97.9881 16.7536 97.3526 16.5614C96.7169 16.3694 96.0477 16.3155 95.3896 16.4031C95.2627 16.4163 95.1376 16.4437 95.0167 16.4847L95.0284 16.4264ZM111.817 15.4361L110.093 16.7992C109.795 16.4884 109.415 16.2689 108.997 16.1666C108.579 16.0643 108.141 16.0834 107.734 16.2217C107.326 16.3599 106.967 16.6115 106.697 16.9471C106.428 17.2826 106.26 17.6881 106.213 18.1158V18.3022C106.213 19.3274 106.924 20.0148 108.31 20.108C113.646 20.4342 116.093 22.9391 116.093 26.2479V26.4576C115.955 27.7672 115.444 29.0096 114.621 30.0372C113.797 31.0648 112.696 31.8341 111.448 32.2539C110.2 32.6735 108.857 32.7259 107.58 32.4047C106.303 32.0836 105.145 31.4024 104.244 30.4422L106.027 29.0674C106.442 29.5121 106.948 29.8612 107.512 30.0906C108.075 30.3198 108.681 30.424 109.289 30.3956C110.411 30.4548 111.513 30.0781 112.364 29.3442C113.215 28.6105 113.749 27.5762 113.856 26.4576V26.2945C113.856 23.1838 110.803 22.6129 108.159 22.3566C105.712 22.1236 103.953 20.5974 103.953 18.3954V18.3022C104.039 17.1558 104.562 16.0862 105.414 15.3145C106.266 14.5426 107.382 14.1274 108.532 14.1545C109.141 14.1366 109.747 14.2465 110.311 14.4773C110.874 14.7081 111.384 15.0546 111.805 15.4944L111.817 15.4361ZM125.215 30.2558C128.116 30.2558 130.412 27.1217 130.412 23.2654V13.9448H132.742V23.2654C132.742 28.3917 129.386 32.5277 125.262 32.5277C121.138 32.5277 117.782 28.3917 117.782 23.2654V13.9448H120.112V23.2654C120.019 27.18 122.314 30.314 125.204 30.314L125.215 30.2558ZM150.625 32.5859H148.295V21.0517L142.924 28.0421L137.553 21.0517V32.6209H135.223V14.0963L142.913 24.2207L150.602 14.0963L150.625 32.5859Z" fill="#F4F4F4"/>
<path d="M16.1642 11.3118C16.1642 9.63091 15.4965 8.01882 14.3079 6.83023C13.1193 5.64162 11.5072 4.97388 9.82625 4.97388C8.14531 4.97388 6.53323 5.64162 5.34463 6.83023C4.15603 8.01882 3.48828 9.63091 3.48828 11.3118V30.4772L8.70778 34.2171V43.3279H10.9447V34.2171L16.1642 30.4772V11.3118ZM13.9273 22.0305L10.9447 25.013V22.2169L13.9273 19.2343V22.0305ZM5.77181 19.2343L8.75439 22.2169V25.013L5.77181 22.0305V19.2343ZM13.9273 16.0653L9.82625 20.1664L5.72521 15.9721V13.176L9.82625 17.277L13.9273 13.176V16.0653ZM9.82625 7.21081C10.7282 7.21479 11.6039 7.51434 12.3194 8.06355C13.0348 8.61277 13.5505 9.38136 13.7875 10.2516L9.82625 14.2012L5.86502 10.2516C6.0933 9.37271 6.60527 8.59368 7.32151 8.03545C8.03774 7.47721 8.91818 7.17095 9.82625 7.16419V7.21081ZM5.72521 29.3471V25.1528L8.70778 28.1354V31.4675L5.72521 29.3471ZM10.9447 31.4792V28.1354L13.9273 25.1528V29.3354L10.9447 31.4792Z" fill="#F4F4F4"/>
</svg>
